build/img/logo-icon.svg

<svg width="20" height="18" viewBox="0 0 20 18" fill="none" xmlns="http://www.w3.org/2000/svg">
<path d="M10 1.5H15L19 6.5M10 1.5L13 6.5M10 1.5H5L1 6.5M10 1.5L7 6.5M19 6.5L10 16.5M19 6.5H13M10 16.5L13 6.5M10 16.5L1 6.5M10 16.5L7 6.5M13 6.5H7M1 6.5H7" stroke="#FFCF2D" stroke-width="1.5"/>
</svg>

<svg width="20" height="18" fill="none" xmlns="http://www.w3.org/2000/svg"><path d="M10 1.5h5l4 5m-9-5 3 5m-3-5H5l-4 5m9-5-3 5m12 0-9 10m9-10h-6m-3 10 3-10m-3 10-9-10m9 10-3-10m6 0H7m-6 0h6" stroke="#FFCF2D" stroke-width="1.5"/></svg>
